ZUCCAL
CUT["Der Teppichkraemer"
    VOM TYROL SAN MA AUSSA]
REG[Europa, Mitteleuropa, Tirol]
KEY[Z1285  16  G 3/4]
MEL[-5_.-5  1__1__.2_  3__3__
    6__  5__4__4_-7_  1___
    -5_.-5  1__1__.2_  3__3__
    6__  5__4__4_-7_  1__0__
    2_.2  2__2__2_2_  2_5_2__
    -7_1_  2__2__2_2_  2_7_5__
    -7_1_  2__5_2_5_7_  +2__.
    7_+3_+2_  4#_.+3+2_+1_3_4_  5___
    -5_.-5  1__1__.2_  3__3__
    6__  5__4__4_-7_  1___ //] >>
FCT[Handwerker -, Bauern - Lied]
